X:1
T:Title
%%score ( 1 2 ) { 3 | 4 }
L:1/8
Q:1/4=137
M:6/4
K:Ab
V:1 treble nm="Grand Piano, Soprano"
V:2 treble 
V:3 bass nm="Choir Pad, Accept My Service, Lord"
V:4 bass 
V:1
 [Ec]2 [CA]4 [CF]2 [CE]4 | [EA]2 [FA]4 [DF]2 [DF]4 | [DF]2 [=DF]4 [Dc]2 [DB]4 | %3
w: By~Charles~King~Langley,~Sr. * * *|||
 [=DF]2 [FA]4 [EG]2 [EG]4 | [DB]2 [CA]4 [CF]2 [CE]4 | [Ec]2 [EB]4 [Ec]2 [DF]4 | %6
w: |||
 [DB]2 [CA]4 [CE]2 [DG]4 | [DB]2 [DB]4 [CA]2 [CA]4 | c2 B4 [Ed]2 [DE]4 | z2 A4- A4- A3/2 z/ | %10
w: ||||
 c2 B4 [Ec]2 [=DG]4 | [=DF]2 E4 C2 _D4 | [DG]2 [CA]4 [CE]2 [Ec]4 | [Ec]2 [FB]4 [Fc]2 [Fd]4 | %14
w: ||||
 [DB]2 [CA]4 [CE]2 [DB]4 | z2 A4- A6- | A6 z6 |] %17
w: |||
V:2
 x12 | x12 | x12 | x12 | x12 | x12 | x12 | x12 | x12 | [DB]2 C4 D2 C4 | x12 | x12 | x12 | x12 | %14
 x12 | [DE]2 C4 D2 C4- | C6 z6 |] %17
V:3
 E,2 E,4 A,2 A,4 | C2 D4 A,2 A,4 | A,2 B,4 F,2 F,4 | B,2 B,4 B,2 B,4 | G,2 A,4 A,2 A,4 | %5
 A,2 G,4 A,2 A,4 | F,2 E,4 A,2 B,4 | G,2 A,4 E,2 E,4 | z6 G,2 G,4 | G,2 A,4 F,2 E,4 | z6 A,2 A,4 | %11
 A,2 G,4 A,2 B,4 | B,2 A,4 A,2 A,4 | A,2 F,4 =A,2 B,4 | F,2 E,4 A,2 G,4 | G,2 A,4 F,2 E,4- | %16
 E,6 z6 |] %17
V:4
 A,,2 A,,4 A,,2 A,,4 | A,,2 D,4 D,2 D,4 | D,2 B,,4 B,,2 B,,4 | B,,2 =D,4 E,2 E,4 | %4
 E,2 A,,4 A,,2 A,,4 | A,,2 E,4 C,2 D,4 | .D,6 E,2 E,4 | E,2 A,,4 A,,2 A,,4 | z6 E,2 E,4 | %9
 E,2 A,,4- A,,4- A,,3/2 z/ | z6 A,,2 B,,4 | B,,2 E,4- E,4- E,3/2 z/ | E,2 A,,4 A,,2 A,,4 | %13
 z2 D,4 C,2 B,,4 | .D,6 E,2 E,4 | E,2 A,,4- A,,6- | A,,6 z6 |] %17

